T: Willy Taylor's High Tea
M: 4/4
L: 1/8
K: Gmaj
|: dc>d |\ & |: dg>f |\|: dc>d | B2 B>c B>AG>A | B2 d2 e4 | d2 g>d (3BcB d>G | c>BA>G (3ABA (3FGA | ~|: dg>f | e2 (3edc B>AG>A | B2 d2 e4 | d2 g>d (3BcB d>G |1 c>BA>G A2 g>f | ~
